static/assets/images/icons/astrolab.svg

<svg width="256" height="256" viewBox="0 0 256 256" fill="none" xmlns="http://www.w3.org/2000/svg">
<path d="M227.552 118.465C231.145 156.223 212.985 194.385 177.992 214.588C132.892 240.626 75.9389 227.535 46.4434 185.849L67.6814 173.587C90.3365 203.642 132.374 212.77 165.8 193.471C188.679 180.262 202.042 156.9 203.483 132.362L227.552 118.465Z" fill="black"/>
<path fill-rule="evenodd" clip-rule="evenodd" d="M53.1972 134.008C37.7971 142.9 32.5207 162.592 41.4119 177.992L112.158 137.146C121.05 152.546 140.742 157.823 156.142 148.931L202.803 121.992C218.203 113.1 223.479 93.4084 214.588 78.0083L143.842 118.854C134.95 103.454 115.258 98.1773 99.8583 107.069L53.1972 134.008Z" fill="black"/>
<path d="M209.557 70.1509C180.061 28.4645 123.108 15.3737 78.0083 41.4119C43.0151 61.6152 24.8549 99.7774 28.4479 137.535L52.5175 123.638C53.9582 99.1001 67.3209 75.7378 90.2 62.5285C123.626 43.23 165.664 52.3584 188.319 82.4127L209.557 70.1509Z" fill="black"/>
</svg>

<svg xmlns="http://www.w3.org/2000/svg" fill="none" viewBox="0 0 256 256"><path fill="#000" d="M227.552 118.465c3.593 37.758-14.567 75.92-49.56 96.123-45.1 26.038-102.053 12.947-131.549-28.739l21.238-12.262c22.656 30.055 64.693 39.183 98.119 19.884 22.879-13.209 36.242-36.571 37.683-61.109z"/><path fill="#000" fill-rule="evenodd" d="M53.197 134.008c-15.4 8.892-20.676 28.584-11.785 43.984l70.746-40.846c8.892 15.4 28.584 20.677 43.984 11.785l46.661-26.939c15.4-8.892 20.676-28.584 11.785-43.984l-70.746 40.846c-8.892-15.4-28.584-20.677-43.984-11.785z" clip-rule="evenodd"/><path fill="#000" d="M209.557 70.15c-29.496-41.686-86.449-54.776-131.549-28.738-34.993 20.203-53.153 58.365-49.56 96.123l24.07-13.897c1.44-24.538 14.803-47.9 37.682-61.11 33.426-19.298 75.464-10.17 98.119 19.885z"/></svg>
